X:190
T:The Cup of Tea
M:C
L:1/8
K:D
BAGF GEEF |GEBE GEEA|BAGF GEEG|FDAG FDDA|
BAGF GEEF |GEBE GEEA |BAGF GABc|dBAG FD D2 :|
d2 eg fdec|d2 eg fB B2|d2 eg fdec|dBAG FD D2|
d2 eg fdec|dfaf g2 fg|afge fdec|dBAG FA D2 :|
FAdA BAdA|FAdA FE E2|FAdA BABc|dBAG FD D2|
FAcA BAdA|FAde fe e2|fdec dBAF|GBAG FD D2 :|
